static/assets/img/icons/theme/home/broom.svg

<svg height="24" viewBox="0 0 24 24" width="24" xmlns="http://www.w3.org/2000/svg"><g fill="none" fill-rule="evenodd"><path d="m0 0h24v24h-24z" opacity="0"/><g fill="#000"><path d="m10.5278225 22.5278225-1.73016938-1.7301694 1.19780956-2.3512558-2.63961737.909448-2.30689249-2.3068925 3.1054322-5.4123247-5.41232468 3.1054322-1.44180781-1.4418078 7.96523439-5.26898875c2.07569478-1.37306853 4.86310158-.88026887 6.34218318 1.12126647 1.5584098 2.10888448 1.5142823 4.99945148-.1077749 7.05978278z" opacity=".3"/><path d="m22.4246212 4.91054166-4.0175037 4.01750368c-.7810486.78104859-2.0473785.78104859-2.8284271 0-.7810486-.78104858-.7810486-2.04737854 0-2.82842712l4.0242394-4.02423942c.178813.33960376.3849639.66899057.6185007.98501916.5975919.80867833 1.3577056 1.42993951 2.2031907 1.8501437z" transform="matrix(-1 0 0 -1 37.417526 11.58921)"/></g></g></svg>

<svg width="24px" height="24px" viewBox="0 0 24 24" version="1.1" xmlns="http://www.w3.org/2000/svg" xmlns:xlink="http://www.w3.org/1999/xlink">
    <title>Icon For Broom</title>
    <g stroke="none" stroke-width="1" fill="none" fill-rule="evenodd">
        <rect opacity="0" x="0" y="0" width="24" height="24"></rect>
        <path d="M10.5278225,22.5278225 L8.79765312,20.7976531 L9.99546268,18.4463973 L7.35584531,19.3558453 L5.04895282,17.0489528 L8.15438502,11.6366281 L2.74206034,14.7420603 L1.30025253,13.3002525 L9.26548692,8.03126375 C11.3411817,6.65819522 14.1285885,7.15099488 15.6076701,9.15253022 C17.1660799,11.2614147 17.1219524,14.1519817 15.4998952,16.212313 L10.5278225,22.5278225 Z" fill="#000000" opacity="0.3"></path>
        <path d="M22.4246212,4.91054166 L18.4071175,8.92804534 C17.6260689,9.70909393 16.359739,9.70909393 15.5786904,8.92804534 C14.7976418,8.14699676 14.7976418,6.8806668 15.5786904,6.09961822 L19.6029298,2.0753788 C19.7817428,2.41498256 19.9878937,2.74436937 20.2214305,3.06039796 C20.8190224,3.86907629 21.5791361,4.49033747 22.4246212,4.91054166 Z" fill="#000000" transform="translate(18.708763, 5.794605) rotate(-180.000000) translate(-18.708763, -5.794605) "></path>
    </g>
</svg>
